assets/sonr-icons/infinity.svg

<svg xmlns="http://www.w3.org/2000/svg" width="24" height="24" fill="none" viewBox="0 0 24 24"><path fill="#000" fill-rule="evenodd" d="M5.70199 7.19995C4.28603 7.19995 3.18482 7.83267 2.46311 8.77703C1.7617 9.69481 1.44049 10.871 1.44049 12C1.44049 13.1289 1.7617 14.3051 2.46311 15.2229C3.18482 16.1672 4.28603 16.8 5.70199 16.8C8.45518 16.8 10.4073 15.08 11.9976 13.4099C12.6634 14.1194 13.3711 14.8307 14.1353 15.4066C15.1957 16.2057 16.4337 16.8 17.931 16.8C19.4302 16.8 20.617 16.2004 21.4145 15.2614C22.1943 14.3432 22.56 13.153 22.56 12C22.56 10.8469 22.1943 9.6567 21.4145 8.7385C20.617 7.7995 19.4302 7.19995 17.931 7.19995C16.4337 7.19995 15.1957 7.79421 14.1354 8.59331C13.3711 9.16936 12.6634 9.8808 11.9976 10.5904C10.4071 8.92016 8.45497 7.19995 5.70199 7.19995ZM5.70199 9.11995C7.65946 9.11995 9.10725 10.3419 10.6857 12.0002C9.10752 13.6582 7.65974 14.88 5.70199 14.88C4.91695 14.88 4.36741 14.5527 3.98862 14.057C3.58953 13.5348 3.36049 12.791 3.36049 12C3.36049 11.2089 3.58953 10.4651 3.98862 9.94288C4.36741 9.44723 4.91695 9.11995 5.70199 9.11995ZM15.2909 13.8733C14.617 13.3654 13.9811 12.7202 13.3085 12.0001C13.9812 11.2799 14.6171 10.6345 15.291 10.1266C16.1414 9.48569 16.9823 9.11995 17.931 9.11995C18.8778 9.11995 19.5255 9.4804 19.951 9.9814C20.3942 10.5032 20.64 11.233 20.64 12C20.64 12.7669 20.3942 13.4967 19.951 14.0185C19.5255 14.5195 18.8778 14.88 17.931 14.88C16.9822 14.88 16.1413 14.5142 15.2909 13.8733Z" clip-rule="evenodd"/></svg>

<svg xmlns="http://www.w3.org/2000/svg" width="24" height="24" fill="none"><path fill="currentColor" fill-rule="evenodd" d="M5.702 7.2c-1.416 0-2.517.633-3.239 1.577C1.762 9.695 1.44 10.871 1.44 12s.322 2.305 1.023 3.223c.722.944 1.823 1.577 3.239 1.577 2.753 0 4.705-1.72 6.296-3.39.665.71 1.373 1.42 2.137 1.997 1.06.799 2.299 1.393 3.796 1.393 1.5 0 2.686-.6 3.483-1.539.78-.918 1.146-2.108 1.146-3.261s-.366-2.343-1.145-3.261c-.798-.94-1.985-1.54-3.484-1.54-1.497.001-2.735.595-3.796 1.394-.764.576-1.472 1.288-2.137 1.997-1.59-1.67-3.543-3.39-6.296-3.39m0 1.92c1.957 0 3.405 1.222 4.984 2.88-1.578 1.658-3.026 2.88-4.984 2.88-.785 0-1.335-.327-1.713-.823-.4-.522-.629-1.266-.629-2.057s.23-1.535.629-2.057c.378-.496.928-.823 1.713-.823m9.589 4.753c-.674-.508-1.31-1.153-1.982-1.873.672-.72 1.308-1.366 1.982-1.873.85-.641 1.691-1.007 2.64-1.007.947 0 1.595.36 2.02.861.443.522.689 1.252.689 2.019s-.246 1.497-.689 2.018c-.425.502-1.073.862-2.02.862-.949 0-1.79-.366-2.64-1.007" clip-rule="evenodd"/></svg>
